X:1
T:Alvan, 87.87.87
T:Alvan, 87.87.87
T:Lowell Mason, 1854
T:Public Domain Courtesy of the Cyber Hymnal™
C:Lowell Mason, 1854
Z:Public Domain
Z:Courtesy of the Cyber Hymnal™
%%score ( 1 2 ) ( 3 4 )
L:1/8
Q:1/4=125
M:3/4
K:F
V:1 treble 
V:2 treble 
V:3 bass 
V:4 bass 
V:1
 [Fc]4 [FA]2 | [FA]4 [CF]2 | (G3 F) [CG]2 | (F2 A2) [Cc]2 | [Fc]4 [FA]2 | [FA]4 [CF]2 | %6
 (G3 F) [CG]2 | [CF]6 | [Fc]4 [FA]2 | [FA]4 [CF]2 | (G3 F) [CG]2 | F2 A2 [Cc]2 | [Fc]4 [FA]2 | %13
 [FA]4 [CF]2 | (G3 F) [CG]2 | [CF]6 | [EG]4 [FA]2 | ([GB]3 [FA]) [EG]2 | [FA]4 [GB]2 | %19
 ([Ac]3 [GB]) [FA]2 | [FB]4 [Fd]2 | (c2 A2) [CF]2 | F2 G2 [CE]2 | [CF]6 |] %24
V:2
 x6 | x6 | C4 x2 | C4 x2 | x6 | x6 | C4 x2 | x6 | x6 | x6 | C4 x2 | C4 x2 | x6 | x6 | C4 x2 | x6 | %16
 x6 | x6 | x6 | x6 | x6 | F4 x2 | D4 x2 | x6 |] %24
V:3
 [F,A,]4 [F,C]2 | [F,C]4 [F,A,]2 | (B,3 A,) [C,B,]2 | (A,2 F,2) [F,A,]2 | [F,A,]4 [F,C]2 | %5
 [F,C]4 [F,A,]2 | (B,3 A,) [C,B,]2 | [F,A,]6 | [F,A,]4 [F,C]2 | [F,C]4 [F,A,]2 | (B,3 A,) [C,B,]2 | %11
 A,2 F,2 [F,A,]2 | [F,A,]4 [F,C]2 | [F,C]4 [F,A,]2 | (B,3 A,) [C,B,]2 | [F,A,]6 | [C,C]4 [C,C]2 | %17
 [C,C]4 [C,C]2 | [F,C]4 [F,C]2 | [F,C]4 [F,C]2 | [D,B,]4 [B,,B,]2 | (A,2 C2) [A,,C]2 | %22
 [B,,B,]4 [C,G,]2 | [F,,A,]6 |] %24
V:4
 x6 | x6 | C,4 x2 | F,4 x2 | x6 | x6 | C,4 x2 | x6 | x6 | x6 | C,4 x2 | F,4 x2 | x6 | x6 | C,4 x2 | %15
 x6 | x6 | x6 | x6 | x6 | x6 | F,4 x2 | x6 | x6 |] %24

